X: 1
T: Walking Bass Blues
T: Assignment from Anna
C: Nov 2024
M: 4/4
K: C clef=bass
"C7" C,2 A,,2 G,,2 ^F,,2| "F" F,,2 A,,2 ^A,,2 B,,2 | "C7"C,2 E,,2 F,,2 ^F,,2|"G7"G,,2 B,,2 "C7"C,2 E,,2
%%vskip 2cm
"F7"F,,2 A,,2 A,,2 G,,2| "F#o7" ^F,,2 A,,2 ^A,,2 B,,2 | "C7" C,2 ^C,2 D,2 ^D,2 | "E-7" E,2 ^G,,2 "A7"A,,2 ^C,2
%%vskip 2cm
"D-7" D,2 E,,2 F,,2 ^F,,2| "G7" G,,2 A,,2 ^A,,2 B,,2 | "C7" C,2 ^G,,2 "A7" A,,2 ^C,2| "D-7" D,2 ^G,,2 "G7"G,,2 ^c,,2| "C" C,8|
